icons/reach/reach-plain.svg

<?xml version="1.0" encoding="UTF-8"?> <svg xmlns="http://www.w3.org/2000/svg" xmlns:xlink="http://www.w3.org/1999/xlink" width="128px" height="128px" viewBox="0 0 128 128" version="1.1"> <g id="surface1"> <path style=" stroke:none;fill-rule:nonzero;fill:#000;fill-opacity:1;" d="M 65.730469 21.566406 C 74.660156 30.601562 83.527344 39.574219 92.472656 48.625 C 92.066406 49.054688 91.726562 49.425781 91.375 49.777344 C 81.859375 59.328125 72.335938 68.867188 62.832031 78.425781 C 52.964844 88.34375 43.109375 98.269531 33.289062 108.234375 C 32.367188 109.171875 31.882812 109.148438 30.976562 108.226562 C 25.488281 102.617188 19.921875 97.082031 14.398438 91.507812 C 10.734375 87.8125 7.097656 84.09375 3.453125 80.378906 C 3.191406 80.113281 2.957031 79.816406 2.6875 79.507812 C 22.945312 59.441406 43.144531 39.433594 63.628906 19.140625 C 64.070312 19.648438 64.867188 20.574219 65.730469 21.566406 Z M 65.730469 21.566406 "/> <path style=" stroke:none;fill-rule:nonzero;fill:#000;fill-opacity:1;" d="M 117.636719 73.335938 C 120.503906 76.144531 123.304688 78.890625 125.796875 81.335938 C 116.488281 91.003906 107.328125 100.515625 98.21875 109.972656 C 81.457031 97.636719 80.789062 65.796875 97.109375 53.039062 C 103.9375 59.789062 110.753906 66.53125 117.636719 73.335938 Z M 117.636719 73.335938 "/> </g> </svg>

<svg xmlns="http://www.w3.org/2000/svg" viewBox="0 0 128 128"><path fill="#6AC6E7" d="m65.73 21.566 26.743 27.059c-.407.43-.746.8-1.098 1.152-9.516 9.551-19.04 19.09-28.543 28.649a8857 8857 0 0 0-29.543 29.808c-.922.938-1.406.914-2.312-.007-5.489-5.61-11.055-11.145-16.579-16.72-3.664-3.695-7.3-7.413-10.945-11.128-.262-.266-.496-.563-.765-.871C22.945 59.44 43.145 39.434 63.628 19.14c.442.507 1.24 1.433 2.102 2.425m51.907 51.771c2.867 2.809 5.668 5.555 8.16 8-9.309 9.668-18.469 19.18-27.578 28.637-16.762-12.336-17.43-44.176-1.11-56.934 6.829 6.75 13.645 13.492 20.528 20.297m0 0"/></svg>
